X: 3073
T: FINNIN' HADDIES
C: Carl Volti
Q:"Strathspey."
R: Strathspey.
%R:strathspey
B: James Kerr "Merry Melodies" v.3 p.10 #73
Z: 2016 John Chambers <jc:trillian.mit.edu>
M: C
L: 1/8
K: Em
uB |\
ve<ue vB>uA vG>vFuE>uG | F<d A>G F<D DB |\
e<e B>A G>FE>G | (3FGA (3BAB G>E E :|
|: F |\
G<G B>G d>GB>G | F<d A>G F<D D>F |\
G<G B>G d>GB>e | (3gfe (3Be^d e>E E :|

%%sep 1 1 500
%%sep 1 1 500

